content/en/docs/ops/deployment/deployment-models/exp-ns.svg

<svg xmlns="http://www.w3.org/2000/svg" viewBox="0 0 690.27 523.1"><defs><style>.a3d954aa-e3bd-4cbe-85d9-ea79222d698f,.af039f18-7ac2-4e03-a974-5783897b9737,.b4dc7821-5462-43e1-8bdd-8c4d339a0206,.b812a516-8f02-49cd-b982-8c44fafb2a43,.ba9969f9-7213-468c-8014-6f91c41bccba{fill:none}.af039f18-7ac2-4e03-a974-5783897b9737,.b4dc7821-5462-43e1-8bdd-8c4d339a0206,.b812a516-8f02-49cd-b982-8c44fafb2a43{stroke-linejoin:round}.a382a5f8-8e62-4571-b6dd-5fe43e965b52,.fb88444c-adca-473c-b98a-e16af7d23c56{font-family:Roboto-Regular,Roboto}.a382a5f8-8e62-4571-b6dd-5fe43e965b52{font-size:14.76px}.b4dc7821-5462-43e1-8bdd-8c4d339a0206,.b812a516-8f02-49cd-b982-8c44fafb2a43{stroke:#e905ee}.af039f18-7ac2-4e03-a974-5783897b9737,.b812a516-8f02-49cd-b982-8c44fafb2a43,.ba9969f9-7213-468c-8014-6f91c41bccba{stroke-width:2px}.abe72f34-368f-4771-9932-e438090ea030{fill:#e6e6e6}.bb8bd977-dc77-4675-8170-4ee23cd87368{fill:#fff}.b4dc7821-5462-43e1-8bdd-8c4d339a0206{stroke-width:3px}.fb88444c-adca-473c-b98a-e16af7d23c56{font-size:17.22px}.b431e1ef-62da-4289-b56f-98cba6a9e7ac{letter-spacing:.01em}.a76fe000-134a-4cdd-9929-91d9bfcd8a0e{fill:#757575}.af039f18-7ac2-4e03-a974-5783897b9737,.ba9969f9-7213-468c-8014-6f91c41bccba{stroke:#fff}.ba9969f9-7213-468c-8014-6f91c41bccba{stroke-linecap:round}.a3d954aa-e3bd-4cbe-85d9-ea79222d698f,.ba9969f9-7213-468c-8014-6f91c41bccba{stroke-miterlimit:10}.a3d954aa-e3bd-4cbe-85d9-ea79222d698f{stroke:#090;stroke-width:4px}.a7927b81-80cc-4fff-a71d-ef6d36479c8f{fill:#090}</style></defs><g id="a2a4f74d-0500-4787-88a4-d406ae4e63de" data-name="exp-ns"><rect x=".5" y="13.7" width="689.27" height="508.9" rx="10" stroke-linejoin="round" stroke="#466bb0" stroke-dasharray="10 10" fill="none"/><text transform="translate(.48 10.27)" font-family="Roboto-Regular,Roboto" font-size="12">Istio Mesh</text><text class="a382a5f8-8e62-4571-b6dd-5fe43e965b52" transform="translate(13.07 63.33)">Namespace:<tspan x="82.37" y="0" letter-spacing="-.03em"> </tspan><tspan x="85.6" y="0" letter-spacing="-.04em">T</tspan><tspan x="93.76" y="0">eam-1</tspan></text><rect class="b812a516-8f02-49cd-b982-8c44fafb2a43" x="13.16" y="67.03" width="304.79" height="404.87" rx="10"/><text class="a382a5f8-8e62-4571-b6dd-5fe43e965b52" transform="translate(372.31 63.33)">Namespace:<tspan x="82.37" y="0" letter-spacing="-.03em"> </tspan><tspan x="85.6" y="0" letter-spacing="-.04em">T</tspan><tspan x="93.76" y="0" letter-spacing="0">eam-2</tspan></text><rect class="b812a516-8f02-49cd-b982-8c44fafb2a43" x="372.39" y="67.03" width="304.79" height="404.87" rx="10"/><rect class="abe72f34-368f-4771-9932-e438090ea030" x="403.17" y="116.52" width="243.16" height="88.58" rx="3"/><rect class="bb8bd977-dc77-4675-8170-4ee23cd87368" x="413.8" y="127.6" width="66.43" height="66.43" rx="3"/><path class="b4dc7821-5462-43e1-8bdd-8c4d339a0206" d="M463.33 170.22V151.4l-16.31-9.41-16.31 9.41v18.82l16.31 9.42 16.31-9.42z"/><rect class="bb8bd977-dc77-4675-8170-4ee23cd87368" x="491.31" y="127.6" width="143.94" height="66.43" rx="3"/><text class="fb88444c-adca-473c-b98a-e16af7d23c56" transform="translate(555.85 166.77)">Se<tspan class="b431e1ef-62da-4289-b56f-98cba6a9e7ac" x="19.34" y="0">r</tspan><tspan x="25.32" y="0">vice C</tspan></text><circle class="a76fe000-134a-4cdd-9929-91d9bfcd8a0e" cx="524.53" cy="160.81" r="22.14"/><path class="af039f18-7ac2-4e03-a974-5783897b9737" d="M516.66 152.8h15.73v15.73h-15.73z"/><path class="ba9969f9-7213-468c-8014-6f91c41bccba" d="M519.57 152.8v-3.79m4.96 3.79v-3.79m4.95 3.79v-3.79m-9.91 23.6v-3.78m4.96 3.78v-3.78m4.95 3.78v-3.78m-12.97-3.06h-3.78m3.78-4.96h-3.78m3.78-4.95h-3.78m23.6 9.91h-3.79m3.79-4.96h-3.79m3.79-4.95h-3.79"/><rect class="bb8bd977-dc77-4675-8170-4ee23cd87368" x="521.03" y="157.17" width="6.99" height="6.99" rx="2"/><rect class="abe72f34-368f-4771-9932-e438090ea030" x="43.93" y="116.52" width="243.16" height="88.58" rx="3"/><rect class="bb8bd977-dc77-4675-8170-4ee23cd87368" x="54.56" y="127.6" width="143.94" height="66.43" rx="3"/><text class="fb88444c-adca-473c-b98a-e16af7d23c56" transform="translate(119.09 166.77)">Se<tspan class="b431e1ef-62da-4289-b56f-98cba6a9e7ac" x="19.34" y="0">r</tspan><tspan x="25.32" y="0">vice A</tspan></text><circle class="a76fe000-134a-4cdd-9929-91d9bfcd8a0e" cx="87.78" cy="160.81" r="22.14"/><path class="af039f18-7ac2-4e03-a974-5783897b9737" d="M79.91 152.8h15.73v15.73H79.91z"/><path class="ba9969f9-7213-468c-8014-6f91c41bccba" d="M82.83 152.8v-3.79m4.95 3.79v-3.79m4.95 3.79v-3.79m-9.9 23.6v-3.78m4.95 3.78v-3.78m4.95 3.78v-3.78m-12.96-3.06h-3.79m3.79-4.96h-3.79m3.79-4.95h-3.79m23.6 9.91h-3.79m3.79-4.96h-3.79m3.79-4.95h-3.79"/><rect class="bb8bd977-dc77-4675-8170-4ee23cd87368" x="84.28" y="157.17" width="6.99" height="6.99" rx="2"/><rect class="bb8bd977-dc77-4675-8170-4ee23cd87368" x="209.58" y="127.6" width="66.43" height="66.43" rx="3"/><path class="b4dc7821-5462-43e1-8bdd-8c4d339a0206" d="M259.11 170.22V151.4l-16.32-9.41-16.31 9.41v18.82l16.31 9.42 16.32-9.42z"/><rect class="abe72f34-368f-4771-9932-e438090ea030" x="403.17" y="320.75" width="243.16" height="88.58" rx="3"/><rect class="bb8bd977-dc77-4675-8170-4ee23cd87368" x="413.8" y="331.82" width="66.43" height="66.43" rx="3"/><path class="b4dc7821-5462-43e1-8bdd-8c4d339a0206" d="M463.33 374.45v-18.82l-16.31-9.42-16.31 9.42v18.82l16.31 9.41 16.31-9.41z"/><rect class="bb8bd977-dc77-4675-8170-4ee23cd87368" x="491.31" y="331.82" width="143.94" height="66.43" rx="3"/><text class="fb88444c-adca-473c-b98a-e16af7d23c56" transform="translate(555.8 370.99)">Se<tspan class="b431e1ef-62da-4289-b56f-98cba6a9e7ac" x="19.34" y="0">r</tspan><tspan x="25.32" y="0">vice D</tspan></text><circle class="a76fe000-134a-4cdd-9929-91d9bfcd8a0e" cx="524.53" cy="365.04" r="22.14"/><path class="af039f18-7ac2-4e03-a974-5783897b9737" d="M516.66 357.02h15.73v15.73h-15.73z"/><path class="ba9969f9-7213-468c-8014-6f91c41bccba" d="M519.57 357.02v-3.78m4.96 3.78v-3.78m4.95 3.78v-3.78m-9.91 23.6v-3.79m4.96 3.79v-3.79m4.95 3.79v-3.79m-12.97-3.06h-3.78m3.78-4.95h-3.78m3.78-4.96h-3.78m23.6 9.91h-3.79m3.79-4.95h-3.79m3.79-4.96h-3.79"/><rect class="bb8bd977-dc77-4675-8170-4ee23cd87368" x="521.03" y="361.4" width="6.99" height="6.99" rx="2"/><rect class="abe72f34-368f-4771-9932-e438090ea030" x="43.93" y="320.75" width="243.16" height="88.58" rx="3"/><rect class="bb8bd977-dc77-4675-8170-4ee23cd87368" x="54.56" y="331.82" width="143.94" height="66.43" rx="3"/><text class="fb88444c-adca-473c-b98a-e16af7d23c56" transform="translate(119.34 370.99)">Se<tspan class="b431e1ef-62da-4289-b56f-98cba6a9e7ac" x="19.34" y="0">r</tspan><tspan x="25.32" y="0">vice B</tspan></text><circle class="a76fe000-134a-4cdd-9929-91d9bfcd8a0e" cx="87.78" cy="365.04" r="22.14"/><path class="af039f18-7ac2-4e03-a974-5783897b9737" d="M79.91 357.02h15.73v15.73H79.91z"/><path class="ba9969f9-7213-468c-8014-6f91c41bccba" d="M82.83 357.02v-3.78m4.95 3.78v-3.78m4.95 3.78v-3.78m-9.9 23.6v-3.79m4.95 3.79v-3.79m4.95 3.79v-3.79m-12.96-3.06h-3.79m3.79-4.95h-3.79m3.79-4.96h-3.79m23.6 9.91h-3.79m3.79-4.95h-3.79m3.79-4.96h-3.79"/><rect class="bb8bd977-dc77-4675-8170-4ee23cd87368" x="84.28" y="361.4" width="6.99" height="6.99" rx="2"/><rect class="bb8bd977-dc77-4675-8170-4ee23cd87368" x="209.58" y="331.82" width="66.43" height="66.43" rx="3"/><path class="b4dc7821-5462-43e1-8bdd-8c4d339a0206" d="M259.11 374.45v-18.82l-16.32-9.42-16.31 9.42v18.82l16.31 9.41 16.32-9.41z"/><path class="a3d954aa-e3bd-4cbe-85d9-ea79222d698f" d="M242.8 201.21v123.43"/><path class="a7927b81-80cc-4fff-a71d-ef6d36479c8f" d="M237.81 202.66l4.98-8.63 4.99 8.63h-9.97zm0 120.53l4.98 8.63 4.99-8.63h-9.97z"/><path class="a3d954aa-e3bd-4cbe-85d9-ea79222d698f" d="M447.02 201.21v123.43"/><path class="a7927b81-80cc-4fff-a71d-ef6d36479c8f" d="M442.03 202.66l4.99-8.63 4.99 8.63h-9.98zm0 120.53l4.99 8.63 4.99-8.63h-9.98z"/><path class="a3d954aa-e3bd-4cbe-85d9-ea79222d698f" d="M283.19 160.67h123.44"/><path class="a7927b81-80cc-4fff-a71d-ef6d36479c8f" d="M284.65 165.65l-8.64-4.98 8.64-4.99v9.97zm120.52 0l8.63-4.98-8.63-4.99v9.97z"/><g opacity=".2"><path class="a3d954aa-e3bd-4cbe-85d9-ea79222d698f" d="M283.19 368.39h123.44"/><path class="a7927b81-80cc-4fff-a71d-ef6d36479c8f" d="M284.65 373.38l-8.64-4.99 8.64-4.99v9.98zm120.52 0l8.63-4.99-8.63-4.99v9.98z"/></g><path d="M345.14 351.49a16.41 16.41 0 018.45 2.28 17 17 0 016.16 6.17 16.74 16.74 0 010 16.9 17.11 17.11 0 01-6.16 6.17 16.82 16.82 0 01-16.91 0 17.18 17.18 0 01-6.16-6.17 16.74 16.74 0 010-16.9 17.11 17.11 0 016.16-6.17 16.42 16.42 0 018.46-2.28zm-8.86 25.76a12 12 0 005 3.06 12.86 12.86 0 0011.08-1.63l-17.52-17.52a12.95 12.95 0 00-1.63 11.08 12.15 12.15 0 003.07 5.01zM354 359.53a12.15 12.15 0 00-5-3.07 12.9 12.9 0 00-11.08 1.64l17.52 17.51a12.92 12.92 0 001.63-11.07 12.11 12.11 0 00-3.07-5.01z" fill="#ff1d25"/></g></svg>

<svg xmlns="http://www.w3.org/2000/svg" viewBox="0 0 690.27 523.1"><defs><style>.a3d954aa-e3bd-4cbe-85d9-ea79222d698f,.af039f18-7ac2-4e03-a974-5783897b9737,.b4dc7821-5462-43e1-8bdd-8c4d339a0206,.b812a516-8f02-49cd-b982-8c44fafb2a43,.ba9969f9-7213-468c-8014-6f91c41bccba{fill:none}.af039f18-7ac2-4e03-a974-5783897b9737,.b4dc7821-5462-43e1-8bdd-8c4d339a0206,.b812a516-8f02-49cd-b982-8c44fafb2a43{stroke-linejoin:round}.a382a5f8-8e62-4571-b6dd-5fe43e965b52,.fb88444c-adca-473c-b98a-e16af7d23c56{font-family:Roboto-Regular,Roboto}.a382a5f8-8e62-4571-b6dd-5fe43e965b52{font-size:14.76px}.b4dc7821-5462-43e1-8bdd-8c4d339a0206,.b812a516-8f02-49cd-b982-8c44fafb2a43{stroke:#e905ee}.af039f18-7ac2-4e03-a974-5783897b9737,.b812a516-8f02-49cd-b982-8c44fafb2a43,.ba9969f9-7213-468c-8014-6f91c41bccba{stroke-width:2px}.abe72f34-368f-4771-9932-e438090ea030{fill:#e6e6e6}.bb8bd977-dc77-4675-8170-4ee23cd87368{fill:#fff}.b4dc7821-5462-43e1-8bdd-8c4d339a0206{stroke-width:3px}.fb88444c-adca-473c-b98a-e16af7d23c56{font-size:17.22px}.b431e1ef-62da-4289-b56f-98cba6a9e7ac{letter-spacing:.01em}.a76fe000-134a-4cdd-9929-91d9bfcd8a0e{fill:#757575}.af039f18-7ac2-4e03-a974-5783897b9737,.ba9969f9-7213-468c-8014-6f91c41bccba{stroke:#fff}.ba9969f9-7213-468c-8014-6f91c41bccba{stroke-linecap:round}.a3d954aa-e3bd-4cbe-85d9-ea79222d698f,.ba9969f9-7213-468c-8014-6f91c41bccba{stroke-miterlimit:10}.a3d954aa-e3bd-4cbe-85d9-ea79222d698f{stroke:#090;stroke-width:4px}.a7927b81-80cc-4fff-a71d-ef6d36479c8f{fill:#090}</style></defs><g id="a2a4f74d-0500-4787-88a4-d406ae4e63de" data-name="exp-ns"><rect x=".5" y="13.7" width="689.27" height="508.9" rx="10" stroke-linejoin="round" stroke="#466bb0" stroke-dasharray="10 10" fill="none"/><text transform="translate(.48 10.27)" font-family="Roboto-Regular,Roboto" font-size="12">Istio Mesh</text><text class="a382a5f8-8e62-4571-b6dd-5fe43e965b52" transform="translate(13.07 63.33)">Namespace:<tspan x="82.37" y="0" letter-spacing="-.03em"> </tspan><tspan x="85.6" y="0" letter-spacing="-.04em">T</tspan><tspan x="93.76" y="0">eam-1</tspan></text><rect class="b812a516-8f02-49cd-b982-8c44fafb2a43" x="13.16" y="67.03" width="304.79" height="404.87" rx="10"/><text class="a382a5f8-8e62-4571-b6dd-5fe43e965b52" transform="translate(372.31 63.33)">Namespace:<tspan x="82.37" y="0" letter-spacing="-.03em"> </tspan><tspan x="85.6" y="0" letter-spacing="-.04em">T</tspan><tspan x="93.76" y="0" letter-spacing="0">eam-2</tspan></text><rect class="b812a516-8f02-49cd-b982-8c44fafb2a43" x="372.39" y="67.03" width="304.79" height="404.87" rx="10"/><rect class="abe72f34-368f-4771-9932-e438090ea030" x="403.17" y="116.52" width="243.16" height="88.58" rx="3"/><rect class="bb8bd977-dc77-4675-8170-4ee23cd87368" x="413.8" y="127.6" width="66.43" height="66.43" rx="3"/><path class="b4dc7821-5462-43e1-8bdd-8c4d339a0206" d="M463.33 170.22V151.4l-16.31-9.41-16.31 9.41v18.82l16.31 9.42 16.31-9.42z"/><rect class="bb8bd977-dc77-4675-8170-4ee23cd87368" x="491.31" y="127.6" width="143.94" height="66.43" rx="3"/><text class="fb88444c-adca-473c-b98a-e16af7d23c56" transform="translate(555.85 166.77)">Se<tspan class="b431e1ef-62da-4289-b56f-98cba6a9e7ac" x="19.34" y="0">r</tspan><tspan x="25.32" y="0">vice C</tspan></text><circle class="a76fe000-134a-4cdd-9929-91d9bfcd8a0e" cx="524.53" cy="160.81" r="22.14"/><path class="af039f18-7ac2-4e03-a974-5783897b9737" d="M516.66 152.8h15.73v15.73h-15.73z"/><path class="ba9969f9-7213-468c-8014-6f91c41bccba" d="M519.57 152.8v-3.79M524.53 152.8v-3.79M529.48 152.8v-3.79M519.57 172.61v-3.78M524.53 172.61v-3.78M529.48 172.61v-3.78M516.51 165.77h-3.78M516.51 160.81h-3.78M516.51 155.86h-3.78M536.33 165.77h-3.79M536.33 160.81h-3.79M536.33 155.86h-3.79"/><rect class="bb8bd977-dc77-4675-8170-4ee23cd87368" x="521.03" y="157.17" width="6.99" height="6.99" rx="2"/><rect class="abe72f34-368f-4771-9932-e438090ea030" x="43.93" y="116.52" width="243.16" height="88.58" rx="3"/><rect class="bb8bd977-dc77-4675-8170-4ee23cd87368" x="54.56" y="127.6" width="143.94" height="66.43" rx="3"/><text class="fb88444c-adca-473c-b98a-e16af7d23c56" transform="translate(119.09 166.77)">Se<tspan class="b431e1ef-62da-4289-b56f-98cba6a9e7ac" x="19.34" y="0">r</tspan><tspan x="25.32" y="0">vice A</tspan></text><circle class="a76fe000-134a-4cdd-9929-91d9bfcd8a0e" cx="87.78" cy="160.81" r="22.14"/><path class="af039f18-7ac2-4e03-a974-5783897b9737" d="M79.91 152.8h15.73v15.73H79.91z"/><path class="ba9969f9-7213-468c-8014-6f91c41bccba" d="M82.83 152.8v-3.79M87.78 152.8v-3.79M92.73 152.8v-3.79M82.83 172.61v-3.78M87.78 172.61v-3.78M92.73 172.61v-3.78M79.77 165.77h-3.79M79.77 160.81h-3.79M79.77 155.86h-3.79M99.58 165.77h-3.79M99.58 160.81h-3.79M99.58 155.86h-3.79"/><rect class="bb8bd977-dc77-4675-8170-4ee23cd87368" x="84.28" y="157.17" width="6.99" height="6.99" rx="2"/><rect class="bb8bd977-dc77-4675-8170-4ee23cd87368" x="209.58" y="127.6" width="66.43" height="66.43" rx="3"/><path class="b4dc7821-5462-43e1-8bdd-8c4d339a0206" d="M259.11 170.22V151.4l-16.32-9.41-16.31 9.41v18.82l16.31 9.42 16.32-9.42z"/><rect class="abe72f34-368f-4771-9932-e438090ea030" x="403.17" y="320.75" width="243.16" height="88.58" rx="3"/><rect class="bb8bd977-dc77-4675-8170-4ee23cd87368" x="413.8" y="331.82" width="66.43" height="66.43" rx="3"/><path class="b4dc7821-5462-43e1-8bdd-8c4d339a0206" d="M463.33 374.45v-18.82l-16.31-9.42-16.31 9.42v18.82l16.31 9.41 16.31-9.41z"/><rect class="bb8bd977-dc77-4675-8170-4ee23cd87368" x="491.31" y="331.82" width="143.94" height="66.43" rx="3"/><text class="fb88444c-adca-473c-b98a-e16af7d23c56" transform="translate(555.8 370.99)">Se<tspan class="b431e1ef-62da-4289-b56f-98cba6a9e7ac" x="19.34" y="0">r</tspan><tspan x="25.32" y="0">vice D</tspan></text><circle class="a76fe000-134a-4cdd-9929-91d9bfcd8a0e" cx="524.53" cy="365.04" r="22.14"/><path class="af039f18-7ac2-4e03-a974-5783897b9737" d="M516.66 357.02h15.73v15.73h-15.73z"/><path class="ba9969f9-7213-468c-8014-6f91c41bccba" d="M519.57 357.02v-3.78M524.53 357.02v-3.78M529.48 357.02v-3.78M519.57 376.84v-3.79M524.53 376.84v-3.79M529.48 376.84v-3.79M516.51 369.99h-3.78M516.51 365.04h-3.78M516.51 360.08h-3.78M536.33 369.99h-3.79M536.33 365.04h-3.79M536.33 360.08h-3.79"/><rect class="bb8bd977-dc77-4675-8170-4ee23cd87368" x="521.03" y="361.4" width="6.99" height="6.99" rx="2"/><rect class="abe72f34-368f-4771-9932-e438090ea030" x="43.93" y="320.75" width="243.16" height="88.58" rx="3"/><rect class="bb8bd977-dc77-4675-8170-4ee23cd87368" x="54.56" y="331.82" width="143.94" height="66.43" rx="3"/><text class="fb88444c-adca-473c-b98a-e16af7d23c56" transform="translate(119.34 370.99)">Se<tspan class="b431e1ef-62da-4289-b56f-98cba6a9e7ac" x="19.34" y="0">r</tspan><tspan x="25.32" y="0">vice B</tspan></text><circle class="a76fe000-134a-4cdd-9929-91d9bfcd8a0e" cx="87.78" cy="365.04" r="22.14"/><path class="af039f18-7ac2-4e03-a974-5783897b9737" d="M79.91 357.02h15.73v15.73H79.91z"/><path class="ba9969f9-7213-468c-8014-6f91c41bccba" d="M82.83 357.02v-3.78M87.78 357.02v-3.78M92.73 357.02v-3.78M82.83 376.84v-3.79M87.78 376.84v-3.79M92.73 376.84v-3.79M79.77 369.99h-3.79M79.77 365.04h-3.79M79.77 360.08h-3.79M99.58 369.99h-3.79M99.58 365.04h-3.79M99.58 360.08h-3.79"/><rect class="bb8bd977-dc77-4675-8170-4ee23cd87368" x="84.28" y="361.4" width="6.99" height="6.99" rx="2"/><rect class="bb8bd977-dc77-4675-8170-4ee23cd87368" x="209.58" y="331.82" width="66.43" height="66.43" rx="3"/><path class="b4dc7821-5462-43e1-8bdd-8c4d339a0206" d="M259.11 374.45v-18.82l-16.32-9.42-16.31 9.42v18.82l16.31 9.41 16.32-9.41z"/><path class="a3d954aa-e3bd-4cbe-85d9-ea79222d698f" d="M242.8 201.21v123.43"/><path class="a7927b81-80cc-4fff-a71d-ef6d36479c8f" d="M237.81 202.66l4.98-8.63 4.99 8.63h-9.97zM237.81 323.19l4.98 8.63 4.99-8.63h-9.97z"/><path class="a3d954aa-e3bd-4cbe-85d9-ea79222d698f" d="M447.02 201.21v123.43"/><path class="a7927b81-80cc-4fff-a71d-ef6d36479c8f" d="M442.03 202.66l4.99-8.63 4.99 8.63h-9.98zM442.03 323.19l4.99 8.63 4.99-8.63h-9.98z"/><path class="a3d954aa-e3bd-4cbe-85d9-ea79222d698f" d="M283.19 160.67h123.44"/><path class="a7927b81-80cc-4fff-a71d-ef6d36479c8f" d="M284.65 165.65l-8.64-4.98 8.64-4.99v9.97zM405.17 165.65l8.63-4.98-8.63-4.99v9.97z"/><g opacity=".2"><path class="a3d954aa-e3bd-4cbe-85d9-ea79222d698f" d="M283.19 368.39h123.44"/><path class="a7927b81-80cc-4fff-a71d-ef6d36479c8f" d="M284.65 373.38l-8.64-4.99 8.64-4.99v9.98zM405.17 373.38l8.63-4.99-8.63-4.99v9.98z"/></g><path d="M345.14 351.49a16.41 16.41 0 018.45 2.28 17 17 0 016.16 6.17 16.74 16.74 0 010 16.9 17.11 17.11 0 01-6.16 6.17 16.82 16.82 0 01-16.91 0 17.18 17.18 0 01-6.16-6.17 16.74 16.74 0 010-16.9 17.11 17.11 0 016.16-6.17 16.42 16.42 0 018.46-2.28zm-8.86 25.76a12 12 0 005 3.06 12.86 12.86 0 0011.08-1.63l-17.52-17.52a12.95 12.95 0 00-1.63 11.08 12.15 12.15 0 003.07 5.01zM354 359.53a12.15 12.15 0 00-5-3.07 12.9 12.9 0 00-11.08 1.64l17.52 17.51a12.92 12.92 0 001.63-11.07 12.11 12.11 0 00-3.07-5.01z" fill="#ff1d25"/></g></svg>
